X:1
T:Saved by the Blood
T:Saved by the Blood
T:William Howard Doane
T:Frances Jane (Fanny) Crosby, 1875
T:Public Domain Courtesy of the Cyber Hymnal™
C:William Howard Doane
Z:Public Domain
Z:Courtesy of the Cyber Hymnal™
%%score ( 1 2 ) 3
L:1/8
Q:1/4=115
M:3/4
K:G
V:1 treble 
V:2 treble 
V:3 bass 
V:1
 [B,D]2 | [B,G]2 [DG]2 [DA]2 | [DB]4 [DA][DG] | [CE]2 [EG]2 [CE]2 | [B,D]4 [B,D]2 | %5
w: 1.~We’re|saved by the|blood That was|drawn from the|side Of|
w: 2.~O|yes, ’tis the|blood Of the|Lamb that was|slain; He|
w: 3.~We’re|saved by the|blood; We are|sealed by its|power; ’Tis|
w: 4.~That|blood is a|fount Where the|vil- est may|go And|
w: 5.~We’re|saved by the|blood, Hal- le-|lu- jah a-|gain; We’re|
 [DG]2 [DG]2 [FA]2 | [GB]4 [Ac][GB] | [EA]2 [DG]2 [DF]2 | [DG]4 ||"^Refrain" [Gd]>[Ge] | %10
w: Je- sus our|Lord, When He|lan- guished and|died.||
w: con- quered the|grave, And He|liv- eth a-|gain.||
w: life to the|soul, And is|hope ev- ery|hour.|Hal- le-|
w: wash till their|souls Shall be|whit- er than|snow.||
w: saved by the|blood, Hal- le-|lu- jah, A-|men.||
 [Gd]2 [GB]2 [DG]2 | [GB]4 [Gd]>[Ge] | [Gd]2 [GB]2 [DG]2 | [FA]4 [Fd]>[Fe] | %14
w: ||||
w: ||||
w: lu- jah to|God, For re-|demp- tion so|free; Hal- le-|
w: ||||
w: ||||
 [Gd]2 [GB]2 [Gd]>[Ge] | [Gd]2 [GB]2 G2 | [EA]2 [DG]2 [DF]2 | [DG]4 |] %18
w: ||||
w: ||||
w: lu- jah, hal- le-|lu- jah, Dear|Sav- ior, to|Thee.|
w: ||||
w: ||||
V:2
 x2 | x6 | x6 | x6 | x6 | x6 | x6 | x6 | x4 || x2 | x6 | x6 | x6 | x6 | x6 | x4 G2 | x6 | x4 |] %18
V:3
 [G,,G,]2 | [G,,G,]2 [B,,G,]2 [D,F,]2 | [G,,G,]4 [A,,F,][B,,G,] | [C,G,]2 [C,C]2 [C,G,]2 | %4
 [G,,G,]4 [G,,G,]2 | [G,,B,]2 [B,,G,]2 [D,D]2 | [G,D]4 [F,D][G,D] | [C,C]2 [D,B,]2 [D,C]2 | %8
 [G,B,]4 || [G,B,]>[G,C] | [G,B,]2 [G,D]2 [G,B,]2 | [G,D]4 [G,B,]>[G,C] | [G,B,]2 [G,D]2 [G,B,]2 | %13
 [D,D]4 [D,C]>[D,C] | [G,B,]2 [G,D]2 [G,B,]>[G,C] | [G,B,]2 [G,D]2 [B,,D]2 | %16
 [C,C]2 [D,B,]2 [D,A,]2 | [G,,B,]4 |] %18

